icons/linear-ele-nature-weather-cloudy-sunny.svg

<svg xmlns="http://www.w3.org/2000/svg" width="32px" height="32px" viewBox="0 0 32 32" version="1.1">
    <title>linear-ele-nature-weather-cloudy-sunny</title>
    <g id="linear-ele-nature-weather-cloudy-sunny" stroke-width="1" fill-rule="evenodd">
        <path d="M19.5,8 C25.2989899,8 30,12.7010101 30,18.5 C30,24.2989899 25.2989899,29 19.5,29 L9.5,29 C5.35786438,29 2,25.6421356 2,21.5 C2,17.3578644 5.35786438,14 9.5,14 C9.60981148,14 9.71935131,14.0023667 9.82856461,14.0070851 L10.003,14.018 L10.0425789,13.9349552 C11.7270256,10.4433695 15.2369979,8.11565814 19.2018078,8.00418834 L19.5,8 Z M19.5,10 C15.949732,10 12.8115478,12.1966919 11.5624866,15.4555472 L11.2676705,16.2247352 L10.4562619,16.0826689 C10.1429888,16.0278191 9.82349425,16 9.5,16 C6.46243388,16 4,18.4624339 4,21.5 C4,24.5375661 6.46243388,27 9.5,27 L19.5,27 C24.1944204,27 28,23.1944204 28,18.5 C28,13.8055796 24.1944204,10 19.5,10 Z M10,3 C12.6903354,3 15.0704994,4.32800179 16.5207245,6.36423789 C15.8268628,6.53296841 15.1549013,6.76060598 14.5093122,7.04152231 C13.4092308,5.78986219 11.7968565,5 10,5 C6.6862915,5 4,7.6862915 4,11 C4,11.8598716 4.18088052,12.6774964 4.50666762,13.4169003 C3.92371308,13.7774177 3.38237053,14.1998673 2.89203811,14.6746804 C2.32214161,13.5748491 2,12.3250446 2,11 C2,6.581722 5.581722,3 10,3 Z" id="&#24418;&#29366;" fill-rule="nonzero" />
    </g>
</svg>

<svg xmlns="http://www.w3.org/2000/svg" viewBox="0 0 32 32"><path fill="currentColor" d="M19.5 8C25.299 8 30 12.701 30 18.5S25.299 29 19.5 29h-10a7.5 7.5 0 1 1 .329-14.993l.174.011.04-.083a10.5 10.5 0 0 1 9.159-5.93zm0 2a8.5 8.5 0 0 0-7.938 5.456l-.294.769-.812-.142A5.5 5.5 0 1 0 9.5 27h10a8.5 8.5 0 1 0 0-17M10 3a7.99 7.99 0 0 1 6.52 3.364c-.693.169-1.365.397-2.01.678a6 6 0 0 0-10.003 6.375 9.521 9.521 0 0 0-1.615 1.258A8 8 0 0 1 10 3"/></svg>
